icons/brand/icon_card-maestro_xl_white.svg

<svg xmlns="http://www.w3.org/2000/svg" width="36" height="24" viewBox="0 0 36 24"><g fill="#FFF" fill-rule="evenodd"><path d="M18.608 14.824l.077.029.076.022.077.023.083.022.083.016.089.016.096.013.102.013.115.009.121.007.137.006.15.003.163.003.179.003h.198l.143-.003.147-.009.153-.016.157-.026.156-.035.156-.048.154-.057.146-.07.141-.087.131-.098.118-.115.108-.134.093-.154.073-.172.058-.191.035-.214.016-.288-.016-.242-.048-.204-.073-.173-.096-.14-.115-.118-.131-.093-.137-.076-.147-.064-.153-.054-.15-.048-.144-.048-.137-.048-.128-.057-.108-.067-.093-.083-.044-.061-.036-.061-.022-.06-.013-.061v-.057l.01-.055.019-.054.029-.051.038-.045.048-.044.057-.039.064-.035.07-.029.08-.025.086-.019.093-.013.128-.01.118-.006.105-.003h.096l.086.003.08.006.07.007.067.006.064.01.06.009.058.01.057.01.058.006.057.009.064.007.064.003.23-1.034-.035-.003-.039-.007-.041-.006-.045-.006-.051-.01-.061-.006-.063-.01-.074-.009-.08-.007-.092-.009-.102-.007-.112-.006-.128-.007-.137-.003-.153-.003h-.306l-.131.006-.128.007-.121.009-.115.013-.109.016-.105.019-.102.023-.096.025-.089.026-.086.032-.08.032-.077.038-.073.038-.067.042-.064.044-.061.048-.054.051-.051.055-.048.057-.045.061-.041.06-.035.067-.035.067-.029.074-.029.073-.022.08-.019.08-.019.083-.013.086-.013.089-.009.093-.01.15.003.14.016.128.026.118.038.105.045.099.054.09.061.082.067.074.073.07.077.061.083.054.086.051.089.048.089.041.09.039.092.038.09.035.089.035.083.032.083.032.08.035.073.035.067.035.061.039.054.041.045.045.035.051.025.051.016.061.004.063-.01.074-.019.07-.029.07-.035.07-.048.067-.064.058-.079.051-.106.035-.127.022-.138.007h-.134l-.134-.003-.131-.007-.13-.013-.125-.012-.121-.016-.115-.016-.109-.019-.102-.019-.095-.023-.087-.016-.073-.019-.067-.016-.054-.016-.045-.009-.198 1.002zm3.948-.718l-.01.106-.003.102.003.092.013.09.022.08.035.073.048.067.061.06.073.055.09.048.105.038.125.035.143.026.163.019.182.012h.344l.077-.009.074-.01.063-.009.061-.01.057-.009.055-.01.048-.009.044-.013.045-.013.038-.013.039-.013.035-.012.035-.016.035-.016.035-.016.032-.019.131-.872-.01.004-.025.012-.042.016-.054.016-.07.016-.083.013-.09.006h-.156l-.054-.003-.051-.003-.051-.01-.045-.006-.045-.013-.038-.016-.038-.019-.032-.019-.029-.026-.022-.031-.02-.032-.012-.039-.007-.041v-.048l.007-.054.424-2.544.808.016.178-1.018h-.788L24.707 9h-1.283l-.852 4.991zM9.991 12.753l-.083.134-.073.144-.061.153-.041.163-.029.169-.013.179.003.099.006.102.013.105.019.102.029.105.035.102.045.099.054.096.064.096.077.086.086.083.102.073.115.067.131.061.144.051.163.038.125.019.128.01.131-.003.134-.01.134-.019.134-.026.134-.035.131-.042.124-.048.121-.051.115-.057.105-.061.099-.064.086-.067.077-.07.061-.07-.013.022-.013.038-.01.057-.013.067-.013.08-.013.086-.013.096-.013.096h1.152l.182-1.018.475-2.397.026-.188-.003-.172-.029-.163-.051-.15-.07-.137-.089-.124-.105-.112-.118-.102-.128-.089-.134-.077-.144-.067-.144-.054-.144-.041-.144-.035-.137-.019-.13-.013-.16-.003-.153-.003h-.435l-.134.003-.131.006-.128.006-.125.013-.121.016-.115.019-.112.022-.109.029-.102.035-.102.042-.093.045-.329 1.085.048-.029.067-.026.083-.026.099-.025.112-.026.118-.022.131-.019.137-.022.144-.016.147-.016.147-.013.147-.01.147-.01.144-.003.137-.003.131.003.054.006.054.01.054.013.051.016.048.022.048.026.041.026.042.032.038.038.032.038.032.041.026.045.022.048.016.051.01.054.006.057v.08l-.016.089-.022.077-.01.032h-.036l-.026-.003h-.032l-.035-.003h-.042l-.045-.003h-.101l-.051-.003h-.054l-.057-.003h-.213l-.061.003-.067.003-.07.006-.077.006-.08.006-.077.01-.077.006-.077.006-.07.01-.064.006-.054.006-.048.006-.035.003-.022.003h-.006l-.157.032-.153.038-.15.051-.147.064-.14.073-.134.086-.125.093-.118.105-.105.118-.099.125zm1.13.712l.016-.077.025-.073.032-.067.045-.061.048-.057.054-.051.057-.048.061-.045.061-.035.061-.035.061-.029.054-.022.051-.022.048-.016.038-.013.029-.006.051-.016.057-.016.067-.013.07-.013.073-.013.073-.01.077-.01.073-.006h.137l.057.003.054.006.042.01.032.016.019.019.003.026-.013.061-.013.067-.013.07-.013.077-.016.08-.016.076-.016.074-.016.07-.016.048-.019.051-.026.051-.032.054-.038.054-.045.051-.051.054-.061.048-.067.048-.077.045-.086.038-.096.032-.105.029-.118.022-.124.013-.14.003-.077-.003-.08-.016-.073-.032-.07-.048-.057-.07-.038-.096-.022-.121.008-.156zM5.012 10.51h.045l.013.22.028.523.042.725.048.82.048.814.041.708.029.501.013.188h1.397l1.858-4.499h.048l-.788 4.499h1.247L10.135 9H7.881l-1.477 3.578L6.19 9H4.02l-1.05 6.009h1.248l.788-4.499zm21.354 4.499l.444-2.594.019-.102.023-.099.025-.099.032-.093.035-.092.045-.086.054-.083.061-.08.073-.07.083-.064.099-.058.108-.051.128-.041.144-.032.159-.019.179-.013h.016l.019.003.026.003h.025l.023.004.019.003.012.003h.007l.003-.019.013-.054.016-.083.025-.106.032-.118.035-.128.042-.127.048-.121.035-.09.041-.086.042-.086.044-.08.039-.067.032-.054.022-.035.006-.013h-.006l-.016-.006-.022-.004-.032-.006-.032-.006-.038-.004-.035-.006h-.032l-.141.01-.128.016-.118.025-.108.029-.102.038-.093.042-.089.051-.08.054-.08.06-.073.068-.067.07-.07.076-.067.08-.064.086-.067.09-.067.092.15-.82-1.299-.016-.855 4.908zm2.238-4.027l-.07.096-.067.105-.064.105-.058.112-.051.118-.048.121-.042.124-.038.131-.032.134-.029.137-.022.144-.016.147-.01.153-.003.15.003.147.01.14.016.137.022.131.029.128.035.124.038.118.045.112.048.108.057.105.057.099.067.096.067.089.077.086.077.08.083.077.089.07.089.067.096.061.099.057.102.051.105.048.112.042.112.038.115.032.121.025.121.022.124.019.124.013.131.006.131.003.131-.003.131-.006.128-.013.128-.016.121-.022.121-.026.121-.032.115-.038.115-.041.108-.048.108-.051.105-.057.099-.061.099-.067.093-.073.089-.077.086-.083.083-.086.08-.092.073-.099.067-.102.067-.109.057-.115.057-.118.048-.125.045-.131.042-.134.032-.14.029-.147.022-.15.019-.156.01-.163.003-.134-.003-.134-.006-.131-.013-.124-.019-.125-.026-.121-.029-.118-.035-.112-.035-.11-.048-.105-.048-.105-.058-.099-.061-.096-.064-.089-.07-.089-.077-.083-.08-.08-.083-.073-.089-.07-.096-.067-.096-.061-.105-.054-.105-.051-.112-.048-.118-.041-.118-.035-.124-.032-.128-.026-.134-.019-.137-.013-.141-.01-.144-.003-.137.003-.137.006-.134.016-.131.016-.128.026-.125.029-.121.035-.118.038-.112.045-.112.048-.109.057-.105.057-.099.064-.096.07-.093.073-.089.08-.08.086-.08.086-.076.096zm1.037 1.758l.01-.166.019-.179.019-.105.022-.109.032-.108.038-.109.042-.108.051-.102.057-.102.067-.096.07-.089.08-.08.089-.07.096-.064.105-.048.112-.038.121-.022.131-.01h.105l.096.016.089.026.083.041.073.051.067.064.057.07.051.083.041.093.035.099.025.109.016.112.01.121v.128l-.01.131-.016.137-.029.176-.032.163-.041.15-.048.137-.051.124-.061.115-.064.102-.067.089-.077.08-.08.067-.086.057-.089.045-.096.035-.099.022-.105.013-.109.003-.099-.007-.093-.013-.089-.025-.08-.035-.073-.045-.067-.057-.061-.067-.054-.08-.045-.093-.035-.102-.029-.112-.019-.128-.01-.14v-.15h.005z"/><path d="M12 24c2.158 0 4.215-.576 6.001-1.606A11.988 11.988 0 0 0 24 24c6.617 0 12-5.383 12-12S30.617 0 24 0c-2.158 0-4.214.576-6 1.606A11.991 11.991 0 0 0 12 0C5.383 0 0 5.383 0 12s5.383 12 12 12zm0-23c1.796 0 3.514.44 5.041 1.226a11.984 11.984 0 0 0-4.103 5.113l.922.389A10.985 10.985 0 0 1 18 2.778a10.98 10.98 0 0 1 4.136 4.94l.922-.39a11.991 11.991 0 0 0-4.099-5.102A10.986 10.986 0 0 1 24 1c6.065 0 11 4.935 11 11s-4.935 11-11 11c-1.796 0-3.514-.439-5.041-1.226a11.984 11.984 0 0 0 4.103-5.113l-.922-.389a10.99 10.99 0 0 1-4.14 4.95 10.986 10.986 0 0 1-4.135-4.939l-.922.39a11.981 11.981 0 0 0 4.099 5.101A10.99 10.99 0 0 1 12 23C5.935 23 1 18.065 1 12S5.935 1 12 1z"/><path d="M18.713 11.566l-.016-.141-.025-.134-.029-.125-.038-.118-.045-.108-.051-.102-.054-.093-.061-.089-.067-.08-.07-.073-.077-.067-.077-.064-.083-.054-.083-.051-.086-.045-.089-.038-.093-.035-.093-.029-.093-.026-.093-.022-.096-.019-.093-.013-.093-.01-.093-.006-.089-.006h-.086l-.192.006-.179.013-.172.022-.163.032-.153.038-.144.048-.137.054-.128.057-.121.067-.112.07-.105.077-.096.083-.093.083-.083.089-.077.093-.073.093-.064.096-.061.099-.054.099-.051.099-.045.099-.042.099-.035.096-.032.099-.026.096-.026.093-.022.089-.016.086-.016.083-.013.077-.01.077-.01.067-.016.192-.006.185v.172l.013.166.019.16.029.147.035.14.045.134.051.125.057.118.064.109.07.105.073.096.083.089.086.083.089.077.096.07.096.064.102.057.105.054.109.048.108.042.112.035.112.035.115.025.115.026.115.019.118.016.115.013.112.006.115.006h.265l.141-.003h.128l.117-.008.105-.003.099-.01.089-.01.083-.01.08-.016.073-.016.07-.019.07-.026.07-.025.067-.029.073-.035.073-.038.198-1.133-.134.077-.131.07-.134.057-.128.048-.128.042-.128.032-.128.022-.125.019-.121.01-.125.006h-.118l-.121-.003-.118-.006-.118-.013-.115-.016-.115-.016-.096-.022-.096-.032-.089-.042-.086-.051-.08-.061-.073-.064-.07-.073-.061-.077-.054-.08-.045-.083-.038-.086-.025-.086-.019-.083-.006-.086.003-.08.013-.064h2.955l.051-.281.038-.198.029-.188.016-.179.009-.169v-.16l-.003-.148zm-1.257.316l-.01.121h-1.659l.016-.083.022-.099.025-.096.032-.089.038-.083.045-.08.048-.073.051-.067.057-.064.061-.054.067-.048.07-.041.073-.035.077-.026.083-.016.083-.013h.089l.083.003.08.01.077.019.073.026.067.032.064.038.061.048.054.057.048.064.042.07.032.08.026.086.019.096.006.105v.112z"/></g></svg>

<?xml version="1.0" encoding="UTF-8"?>
<svg width="36px" height="36px" viewBox="0 0 36 36" version="1.1" xmlns="http://www.w3.org/2000/svg" xmlns:xlink="http://www.w3.org/1999/xlink">
    <!-- Generator: Sketch 48.2 (47327) - http://www.bohemiancoding.com/sketch -->
    <title>icon_card-maestro_xl_white</title>
    <desc>Created with Sketch.</desc>
    <defs></defs>
    <g id="card" stroke="none" stroke-width="1" fill="none" fill-rule="evenodd" transform="translate(-104.000000, -114.000000)">
        <g id="icon_card-maestro_xl_white" transform="translate(104.000000, 120.000000)" fill="#FFFFFF">
            <path d="M18.608,14.824 L18.685,14.853 L18.761,14.875 L18.838,14.898 L18.921,14.92 L19.004,14.936 L19.093,14.952 L19.189,14.965 L19.291,14.978 L19.406,14.987 L19.527,14.994 L19.664,15 L19.814,15.003 L19.977,15.006 L20.156,15.009 L20.354,15.009 L20.497,15.006 L20.644,14.997 L20.797,14.981 L20.954,14.955 L21.11,14.92 L21.266,14.872 L21.42,14.815 L21.566,14.745 L21.707,14.658 L21.838,14.56 L21.956,14.445 L22.064,14.311 L22.157,14.157 L22.23,13.985 L22.288,13.794 L22.323,13.58 L22.339,13.292 L22.323,13.05 L22.275,12.846 L22.202,12.673 L22.106,12.533 L21.991,12.415 L21.86,12.322 L21.723,12.246 L21.576,12.182 L21.423,12.128 L21.273,12.08 L21.129,12.032 L20.992,11.984 L20.864,11.927 L20.756,11.86 L20.663,11.777 L20.619,11.716 L20.583,11.655 L20.561,11.595 L20.548,11.534 L20.548,11.477 L20.558,11.422 L20.577,11.368 L20.606,11.317 L20.644,11.272 L20.692,11.228 L20.749,11.189 L20.813,11.154 L20.883,11.125 L20.963,11.1 L21.049,11.081 L21.142,11.068 L21.27,11.058 L21.388,11.052 L21.493,11.049 L21.589,11.049 L21.675,11.052 L21.755,11.058 L21.825,11.065 L21.892,11.071 L21.956,11.081 L22.016,11.09 L22.074,11.1 L22.131,11.11 L22.189,11.116 L22.246,11.125 L22.31,11.132 L22.374,11.135 L22.604,10.101 L22.569,10.098 L22.53,10.091 L22.489,10.085 L22.444,10.079 L22.393,10.069 L22.332,10.063 L22.269,10.053 L22.195,10.044 L22.115,10.037 L22.023,10.028 L21.921,10.021 L21.809,10.015 L21.681,10.008 L21.544,10.005 L21.391,10.002 L21.085,10.002 L20.954,10.008 L20.826,10.015 L20.705,10.024 L20.59,10.037 L20.481,10.053 L20.376,10.072 L20.274,10.095 L20.178,10.12 L20.089,10.146 L20.003,10.178 L19.923,10.21 L19.846,10.248 L19.773,10.286 L19.706,10.328 L19.642,10.372 L19.581,10.42 L19.527,10.471 L19.476,10.526 L19.428,10.583 L19.383,10.644 L19.342,10.704 L19.307,10.771 L19.272,10.838 L19.243,10.912 L19.214,10.985 L19.192,11.065 L19.173,11.145 L19.154,11.228 L19.141,11.314 L19.128,11.403 L19.119,11.496 L19.109,11.646 L19.112,11.786 L19.128,11.914 L19.154,12.032 L19.192,12.137 L19.237,12.236 L19.291,12.326 L19.352,12.408 L19.419,12.482 L19.492,12.552 L19.569,12.613 L19.652,12.667 L19.738,12.718 L19.827,12.766 L19.916,12.807 L20.006,12.846 L20.098,12.884 L20.188,12.919 L20.277,12.954 L20.36,12.986 L20.443,13.018 L20.523,13.053 L20.596,13.088 L20.663,13.123 L20.724,13.162 L20.778,13.203 L20.823,13.248 L20.858,13.299 L20.883,13.35 L20.899,13.411 L20.903,13.474 L20.893,13.548 L20.874,13.618 L20.845,13.688 L20.81,13.758 L20.762,13.825 L20.698,13.883 L20.619,13.934 L20.513,13.969 L20.386,13.991 L20.248,13.998 L20.114,13.998 L19.98,13.995 L19.849,13.988 L19.719,13.975 L19.594,13.963 L19.473,13.947 L19.358,13.931 L19.249,13.912 L19.147,13.893 L19.052,13.87 L18.965,13.854 L18.892,13.835 L18.825,13.819 L18.771,13.803 L18.726,13.794 L18.528,14.796 L18.608,14.824 Z M22.556,14.106 L22.546,14.212 L22.543,14.314 L22.546,14.406 L22.559,14.496 L22.581,14.576 L22.616,14.649 L22.664,14.716 L22.725,14.776 L22.798,14.831 L22.888,14.879 L22.993,14.917 L23.118,14.952 L23.261,14.978 L23.424,14.997 L23.606,15.009 L23.95,15.009 L24.027,15 L24.101,14.99 L24.164,14.981 L24.225,14.971 L24.282,14.962 L24.337,14.952 L24.385,14.943 L24.429,14.93 L24.474,14.917 L24.512,14.904 L24.551,14.891 L24.586,14.879 L24.621,14.863 L24.656,14.847 L24.691,14.831 L24.723,14.812 L24.854,13.94 L24.844,13.944 L24.819,13.956 L24.777,13.972 L24.723,13.988 L24.653,14.004 L24.57,14.017 L24.48,14.023 L24.324,14.023 L24.27,14.02 L24.219,14.017 L24.168,14.007 L24.123,14.001 L24.078,13.988 L24.04,13.972 L24.002,13.953 L23.97,13.934 L23.941,13.908 L23.919,13.877 L23.899,13.845 L23.887,13.806 L23.88,13.765 L23.88,13.717 L23.887,13.663 L24.311,11.119 L25.119,11.135 L25.297,10.117 L24.509,10.117 L24.707,9 L23.424,9 L22.572,13.991 L22.556,14.106 Z M9.991,12.753 L9.908,12.887 L9.835,13.031 L9.774,13.184 L9.733,13.347 L9.704,13.516 L9.691,13.695 L9.694,13.794 L9.7,13.896 L9.713,14.001 L9.732,14.103 L9.761,14.208 L9.796,14.31 L9.841,14.409 L9.895,14.505 L9.959,14.601 L10.036,14.687 L10.122,14.77 L10.224,14.843 L10.339,14.91 L10.47,14.971 L10.614,15.022 L10.777,15.06 L10.902,15.079 L11.03,15.089 L11.161,15.086 L11.295,15.076 L11.429,15.057 L11.563,15.031 L11.697,14.996 L11.828,14.954 L11.952,14.906 L12.073,14.855 L12.188,14.798 L12.293,14.737 L12.392,14.673 L12.478,14.606 L12.555,14.536 L12.616,14.466 L12.603,14.488 L12.59,14.526 L12.58,14.583 L12.567,14.65 L12.554,14.73 L12.541,14.816 L12.528,14.912 L12.515,15.008 L13.667,15.008 L13.849,13.99 L14.324,11.593 L14.35,11.405 L14.347,11.233 L14.318,11.07 L14.267,10.92 L14.197,10.783 L14.108,10.659 L14.003,10.547 L13.885,10.445 L13.757,10.356 L13.623,10.279 L13.479,10.212 L13.335,10.158 L13.191,10.117 L13.047,10.082 L12.91,10.063 L12.78,10.05 L12.62,10.047 L12.467,10.044 L12.032,10.044 L11.898,10.047 L11.767,10.053 L11.639,10.059 L11.514,10.072 L11.393,10.088 L11.278,10.107 L11.166,10.129 L11.057,10.158 L10.955,10.193 L10.853,10.235 L10.76,10.28 L10.431,11.365 L10.479,11.336 L10.546,11.31 L10.629,11.284 L10.728,11.259 L10.84,11.233 L10.958,11.211 L11.089,11.192 L11.226,11.17 L11.37,11.154 L11.517,11.138 L11.664,11.125 L11.811,11.115 L11.958,11.105 L12.102,11.102 L12.239,11.099 L12.37,11.102 L12.424,11.108 L12.478,11.118 L12.532,11.131 L12.583,11.147 L12.631,11.169 L12.679,11.195 L12.72,11.221 L12.762,11.253 L12.8,11.291 L12.832,11.329 L12.864,11.37 L12.89,11.415 L12.912,11.463 L12.928,11.514 L12.938,11.568 L12.944,11.625 L12.944,11.705 L12.928,11.794 L12.906,11.871 L12.896,11.903 L12.86,11.903 L12.834,11.9 L12.802,11.9 L12.767,11.897 L12.725,11.897 L12.68,11.894 L12.579,11.894 L12.528,11.891 L12.474,11.891 L12.417,11.888 L12.204,11.888 L12.143,11.891 L12.076,11.894 L12.006,11.9 L11.929,11.906 L11.849,11.912 L11.772,11.922 L11.695,11.928 L11.618,11.934 L11.548,11.944 L11.484,11.95 L11.43,11.956 L11.382,11.962 L11.347,11.965 L11.325,11.968 L11.319,11.968 L11.162,12 L11.009,12.038 L10.859,12.089 L10.712,12.153 L10.572,12.226 L10.438,12.312 L10.313,12.405 L10.195,12.51 L10.09,12.628 L9.991,12.753 Z M11.121,13.465 L11.137,13.388 L11.162,13.315 L11.194,13.248 L11.239,13.187 L11.287,13.13 L11.341,13.079 L11.398,13.031 L11.459,12.986 L11.52,12.951 L11.581,12.916 L11.642,12.887 L11.696,12.865 L11.747,12.843 L11.795,12.827 L11.833,12.814 L11.862,12.808 L11.913,12.792 L11.97,12.776 L12.037,12.763 L12.107,12.75 L12.18,12.737 L12.253,12.727 L12.33,12.717 L12.403,12.711 L12.54,12.711 L12.597,12.714 L12.651,12.72 L12.693,12.73 L12.725,12.746 L12.744,12.765 L12.747,12.791 L12.734,12.852 L12.721,12.919 L12.708,12.989 L12.695,13.066 L12.679,13.146 L12.663,13.222 L12.647,13.296 L12.631,13.366 L12.615,13.414 L12.596,13.465 L12.57,13.516 L12.538,13.57 L12.5,13.624 L12.455,13.675 L12.404,13.729 L12.343,13.777 L12.276,13.825 L12.199,13.87 L12.113,13.908 L12.017,13.94 L11.912,13.969 L11.794,13.991 L11.67,14.004 L11.53,14.007 L11.453,14.004 L11.373,13.988 L11.3,13.956 L11.23,13.908 L11.173,13.838 L11.135,13.742 L11.113,13.621 L11.121,13.465 Z M5.012,10.51 L5.057,10.51 L5.07,10.73 L5.098,11.253 L5.14,11.978 L5.188,12.798 L5.236,13.612 L5.277,14.32 L5.306,14.821 L5.319,15.009 L6.716,15.009 L8.574,10.51 L8.622,10.51 L7.834,15.009 L9.081,15.009 L10.135,9 L7.881,9 L6.404,12.578 L6.19,9 L4.02,9 L2.97,15.009 L4.218,15.009 L5.006,10.51 L5.012,10.51 Z M26.366,15.009 L26.81,12.415 L26.829,12.313 L26.852,12.214 L26.877,12.115 L26.909,12.022 L26.944,11.93 L26.989,11.844 L27.043,11.761 L27.104,11.681 L27.177,11.611 L27.26,11.547 L27.359,11.489 L27.467,11.438 L27.595,11.397 L27.739,11.365 L27.898,11.346 L28.077,11.333 L28.093,11.333 L28.112,11.336 L28.138,11.339 L28.163,11.339 L28.186,11.343 L28.205,11.346 L28.217,11.349 L28.224,11.349 L28.227,11.33 L28.24,11.276 L28.256,11.193 L28.281,11.087 L28.313,10.969 L28.348,10.841 L28.39,10.714 L28.438,10.593 L28.473,10.503 L28.514,10.417 L28.556,10.331 L28.6,10.251 L28.639,10.184 L28.671,10.13 L28.693,10.095 L28.699,10.082 L28.693,10.082 L28.677,10.076 L28.655,10.072 L28.623,10.066 L28.591,10.06 L28.553,10.056 L28.518,10.05 L28.486,10.05 L28.345,10.06 L28.217,10.076 L28.099,10.101 L27.991,10.13 L27.889,10.168 L27.796,10.21 L27.707,10.261 L27.627,10.315 L27.547,10.375 L27.474,10.443 L27.407,10.513 L27.337,10.589 L27.27,10.669 L27.206,10.755 L27.139,10.845 L27.072,10.937 L27.222,10.117 L25.923,10.101 L25.068,15.009 L26.366,15.009 Z M28.604,10.982 L28.534,11.078 L28.467,11.183 L28.403,11.288 L28.345,11.4 L28.294,11.518 L28.246,11.639 L28.204,11.763 L28.166,11.894 L28.134,12.028 L28.105,12.165 L28.083,12.309 L28.067,12.456 L28.057,12.609 L28.054,12.759 L28.057,12.906 L28.067,13.046 L28.083,13.183 L28.105,13.314 L28.134,13.442 L28.169,13.566 L28.207,13.684 L28.252,13.796 L28.3,13.904 L28.357,14.009 L28.414,14.108 L28.481,14.204 L28.548,14.293 L28.625,14.379 L28.702,14.459 L28.785,14.536 L28.874,14.606 L28.963,14.673 L29.059,14.734 L29.158,14.791 L29.26,14.842 L29.365,14.89 L29.477,14.932 L29.589,14.97 L29.704,15.002 L29.825,15.027 L29.946,15.049 L30.07,15.068 L30.194,15.081 L30.325,15.087 L30.456,15.09 L30.587,15.087 L30.718,15.081 L30.846,15.068 L30.974,15.052 L31.095,15.03 L31.216,15.004 L31.337,14.972 L31.452,14.934 L31.567,14.893 L31.675,14.845 L31.783,14.794 L31.888,14.737 L31.987,14.676 L32.086,14.609 L32.179,14.536 L32.268,14.459 L32.354,14.376 L32.437,14.29 L32.517,14.198 L32.59,14.099 L32.657,13.997 L32.724,13.888 L32.781,13.773 L32.838,13.655 L32.886,13.53 L32.931,13.399 L32.973,13.265 L33.005,13.125 L33.034,12.978 L33.056,12.828 L33.075,12.672 L33.085,12.509 L33.088,12.375 L33.085,12.241 L33.079,12.11 L33.066,11.986 L33.047,11.861 L33.021,11.74 L32.992,11.622 L32.957,11.51 L32.922,11.4 L32.874,11.295 L32.826,11.19 L32.768,11.091 L32.707,10.995 L32.643,10.906 L32.573,10.817 L32.496,10.734 L32.416,10.654 L32.333,10.581 L32.244,10.511 L32.148,10.444 L32.052,10.383 L31.947,10.329 L31.842,10.278 L31.73,10.23 L31.612,10.189 L31.494,10.154 L31.37,10.122 L31.242,10.096 L31.108,10.077 L30.971,10.064 L30.83,10.054 L30.686,10.051 L30.549,10.054 L30.412,10.06 L30.278,10.076 L30.147,10.092 L30.019,10.118 L29.894,10.147 L29.773,10.182 L29.655,10.22 L29.543,10.265 L29.431,10.313 L29.322,10.37 L29.217,10.427 L29.118,10.491 L29.022,10.561 L28.929,10.634 L28.84,10.714 L28.76,10.8 L28.68,10.886 L28.604,10.982 Z M29.641,12.74 L29.651,12.574 L29.67,12.395 L29.689,12.29 L29.711,12.181 L29.743,12.073 L29.781,11.964 L29.823,11.856 L29.874,11.754 L29.931,11.652 L29.998,11.556 L30.068,11.467 L30.148,11.387 L30.237,11.317 L30.333,11.253 L30.438,11.205 L30.55,11.167 L30.671,11.145 L30.802,11.135 L30.907,11.135 L31.003,11.151 L31.092,11.177 L31.175,11.218 L31.248,11.269 L31.315,11.333 L31.372,11.403 L31.423,11.486 L31.464,11.579 L31.499,11.678 L31.524,11.787 L31.54,11.899 L31.55,12.02 L31.55,12.148 L31.54,12.279 L31.524,12.416 L31.495,12.592 L31.463,12.755 L31.422,12.905 L31.374,13.042 L31.323,13.166 L31.262,13.281 L31.198,13.383 L31.131,13.472 L31.054,13.552 L30.974,13.619 L30.888,13.676 L30.799,13.721 L30.703,13.756 L30.604,13.778 L30.499,13.791 L30.39,13.794 L30.291,13.787 L30.198,13.774 L30.109,13.749 L30.029,13.714 L29.956,13.669 L29.889,13.612 L29.828,13.545 L29.774,13.465 L29.729,13.372 L29.694,13.27 L29.665,13.158 L29.646,13.03 L29.636,12.89 L29.636,12.74 L29.641,12.74 Z" id="Shape"></path>
            <path d="M12,23.9999977 C14.158,23.9999977 16.215,23.4239978 18.001,22.3939979 C19.8248831,23.4469821 21.8939789,24.0009024 24,23.9999977 C30.617,23.9999977 36,18.6169982 36,11.9999989 C36,5.38299948 30.617,-1.14359511e-13 24,-1.14359511e-13 C21.842,-1.14359511e-13 19.786,0.575999945 18,1.60599985 C16.1757687,0.552977598 14.1063416,-0.000939018407 12,-1.14359511e-13 C5.383,-1.14359511e-13 0,5.38299948 0,11.9999989 C0,18.6169982 5.383,23.9999977 12,23.9999977 Z M12,1 C13.796,1 15.514,1.44 17.041,2.226 C15.2246878,3.515851 13.8038535,5.28643983 12.938,7.339 L13.86,7.728 C14.7133077,5.70073339 16.155551,3.9763121 18,2.778 C19.8416327,3.97403241 21.2823354,5.69479429 22.136,7.718 L23.058,7.328 C22.1911856,5.28015122 20.7719872,3.51368366 18.959,2.226 C20.5173603,1.42075038 22.2458866,1.00036289 24,1 C30.065,1 35,5.935 35,12 C35,18.065 30.065,23 24,23 C22.204,23 20.486,22.561 18.959,21.774 C20.7753122,20.484149 22.1961465,18.7135602 23.062,16.661 L22.14,16.272 C21.2864268,18.2991048 19.8442428,20.0234552 18,21.222 C16.1591385,20.0258035 14.7188834,18.3055084 13.865,16.283 L12.943,16.673 C13.809516,18.7207556 15.2287931,20.4869748 17.042,21.774 C15.4832846,22.5792584 13.7544329,22.9996416 12,23 C5.935,23 1,18.065 1,12 C1,5.935 5.935,1 12,1 Z" id="Shape"></path>
            <path d="M18.713,11.566 L18.697,11.425 L18.672,11.291 L18.643,11.166 L18.605,11.048 L18.56,10.94 L18.509,10.838 L18.455,10.745 L18.394,10.656 L18.327,10.576 L18.257,10.503 L18.18,10.436 L18.103,10.372 L18.02,10.318 L17.937,10.267 L17.851,10.222 L17.762,10.184 L17.669,10.149 L17.576,10.12 L17.483,10.094 L17.39,10.072 L17.294,10.053 L17.201,10.04 L17.108,10.03 L17.015,10.024 L16.926,10.018 L16.84,10.018 L16.648,10.024 L16.469,10.037 L16.297,10.059 L16.134,10.091 L15.981,10.129 L15.837,10.177 L15.7,10.231 L15.572,10.288 L15.451,10.355 L15.339,10.425 L15.234,10.502 L15.138,10.585 L15.045,10.668 L14.962,10.757 L14.885,10.85 L14.812,10.943 L14.748,11.039 L14.687,11.138 L14.633,11.237 L14.582,11.336 L14.537,11.435 L14.495,11.534 L14.46,11.63 L14.428,11.729 L14.402,11.825 L14.376,11.918 L14.354,12.007 L14.338,12.093 L14.322,12.176 L14.309,12.253 L14.299,12.33 L14.289,12.397 L14.273,12.589 L14.267,12.774 L14.267,12.946 L14.28,13.112 L14.299,13.272 L14.328,13.419 L14.363,13.559 L14.408,13.693 L14.459,13.818 L14.516,13.936 L14.58,14.045 L14.65,14.15 L14.723,14.246 L14.806,14.335 L14.892,14.418 L14.981,14.495 L15.077,14.565 L15.173,14.629 L15.275,14.686 L15.38,14.74 L15.489,14.788 L15.597,14.83 L15.709,14.865 L15.821,14.9 L15.936,14.925 L16.051,14.951 L16.166,14.97 L16.284,14.986 L16.399,14.999 L16.511,15.005 L16.626,15.011 L16.891,15.011 L17.032,15.008 L17.16,15.008 L17.277,15 L17.382,14.997 L17.481,14.987 L17.57,14.977 L17.653,14.967 L17.733,14.951 L17.806,14.935 L17.876,14.916 L17.946,14.89 L18.016,14.865 L18.083,14.836 L18.156,14.801 L18.229,14.763 L18.427,13.63 L18.293,13.707 L18.162,13.777 L18.028,13.834 L17.9,13.882 L17.772,13.924 L17.644,13.956 L17.516,13.978 L17.391,13.997 L17.27,14.007 L17.145,14.013 L17.027,14.013 L16.906,14.01 L16.788,14.004 L16.67,13.991 L16.555,13.975 L16.44,13.959 L16.344,13.937 L16.248,13.905 L16.159,13.863 L16.073,13.812 L15.993,13.751 L15.92,13.687 L15.85,13.614 L15.789,13.537 L15.735,13.457 L15.69,13.374 L15.652,13.288 L15.627,13.202 L15.608,13.119 L15.602,13.033 L15.605,12.953 L15.618,12.889 L18.573,12.889 L18.624,12.608 L18.662,12.41 L18.691,12.222 L18.707,12.043 L18.716,11.874 L18.716,11.714 L18.713,11.566 Z M17.456,11.882 L17.446,12.003 L15.787,12.003 L15.803,11.92 L15.825,11.821 L15.85,11.725 L15.882,11.636 L15.92,11.553 L15.965,11.473 L16.013,11.4 L16.064,11.333 L16.121,11.269 L16.182,11.215 L16.249,11.167 L16.319,11.126 L16.392,11.091 L16.469,11.065 L16.552,11.049 L16.635,11.036 L16.724,11.036 L16.807,11.039 L16.887,11.049 L16.964,11.068 L17.037,11.094 L17.104,11.126 L17.168,11.164 L17.229,11.212 L17.283,11.269 L17.331,11.333 L17.373,11.403 L17.405,11.483 L17.431,11.569 L17.45,11.665 L17.456,11.77 L17.456,11.882 Z" id="Shape"></path>
        </g>
    </g>
</svg>
